libs/ui/packages/crypto-icons/src/svg/AMP.svg

<svg width="24" height="24" viewBox="0 0 24 24" fill="none">
<path fill-rule="evenodd" clip-rule="evenodd" d="M5.85242 8.59323H5.93492C6.65717 8.57973 7.28492 8.30673 7.81742 7.77498C8.33492 7.21548 8.59442 6.57423 8.59442 5.85123C8.59442 5.48298 8.72717 5.16573 8.99342 4.89948C9.11959 4.77011 9.27094 4.66797 9.43811 4.59935C9.60528 4.53072 9.78474 4.49708 9.96542 4.50048C10.3329 4.50048 10.6509 4.63323 10.9164 4.89948C11.1827 5.16573 11.3154 5.48298 11.3154 5.85123C11.3154 6.21873 11.1894 6.53673 10.9374 6.80298C10.8216 6.93041 10.6813 7.03321 10.5248 7.10524C10.3684 7.17727 10.1991 7.21706 10.0269 7.22223C9.24917 7.19448 8.58092 7.46073 8.02142 8.02023C7.46192 8.57973 7.19642 9.23448 7.22342 9.98523C7.25042 10.7622 7.53092 11.4102 8.06267 11.9285C8.64917 12.4467 9.30392 12.6995 10.0269 12.686C10.1991 12.6912 10.3685 12.7311 10.5249 12.8033C10.6813 12.8755 10.8216 12.9784 10.9374 13.106C11.1894 13.3715 11.3154 13.682 11.3154 14.036C11.3154 14.4185 11.1827 14.7425 10.9164 15.0087C10.7935 15.1366 10.6458 15.238 10.4822 15.3067C10.3187 15.3753 10.1428 15.4097 9.96542 15.4077C9.58292 15.4077 9.25967 15.2742 8.99342 15.0087C8.86405 14.8826 8.76191 14.7312 8.69329 14.564C8.62466 14.3969 8.59101 14.2174 8.59442 14.0367C8.6002 13.6865 8.53417 13.3387 8.40041 13.015C8.26665 12.6912 8.06798 12.3983 7.81667 12.1542C7.57395 11.8968 7.28261 11.69 6.9595 11.5458C6.63638 11.4016 6.28789 11.3229 5.93417 11.3142C5.67542 11.3285 5.45417 11.2872 5.26967 11.192C5.08842 11.0991 4.93361 10.9618 4.81967 10.793C4.70215 10.6193 4.61868 10.4248 4.57367 10.22C4.52649 10.0154 4.51633 9.8041 4.54367 9.59598C4.72067 8.92773 5.15717 8.59323 5.85242 8.59323ZM5.87117 12.686C6.22592 12.686 6.53642 12.8157 6.80192 13.0752C7.06817 13.334 7.20767 13.6415 7.22192 13.9962C7.20767 14.7462 7.46717 15.401 7.99892 15.9605C8.53142 16.5057 9.17192 16.7787 9.92267 16.7787H9.98417C10.7207 16.7787 11.3544 16.5057 11.8869 15.9605C12.4322 15.4145 12.6984 14.7605 12.6849 13.9955C12.6839 13.6376 12.6088 13.2838 12.4644 12.9563C12.3199 12.6288 12.1093 12.3348 11.8457 12.0927C11.3072 11.5805 10.6809 11.321 9.96542 11.315H9.88142C9.70928 11.3098 9.53994 11.27 9.38351 11.198C9.22708 11.126 9.08676 11.0232 8.97092 10.8957C8.84823 10.7698 8.75162 10.621 8.68663 10.4576C8.62163 10.2943 8.58953 10.1197 8.59217 9.94398C8.59217 9.57648 8.72567 9.25848 8.99117 8.99223C9.21692 8.76723 9.48467 8.63673 9.79367 8.60223L9.88367 8.59323L9.91817 8.59398C9.95391 8.59303 9.98968 8.59328 10.0254 8.59473C10.7304 8.58573 11.3439 8.31948 11.8682 7.79523C12.4277 7.23573 12.7007 6.57423 12.6864 5.80998C12.6864 5.50998 12.7892 5.23698 12.9939 4.99173L13.0142 4.97148L13.0344 4.95048C13.0344 4.93698 13.0419 4.93023 13.0547 4.93023L13.0757 4.90998V4.88973H13.0959V4.86798C13.1094 4.86798 13.1162 4.86123 13.1162 4.84773L13.1364 4.82748H13.1777C13.1777 4.81323 13.1852 4.80648 13.1979 4.80648L13.2189 4.78623V4.76598H13.2594C13.2594 4.75173 13.2669 4.74498 13.2797 4.74498L13.3007 4.72473L13.3209 4.70448H13.3412C13.3412 4.69098 13.3487 4.68423 13.3622 4.68423C13.3757 4.68423 13.3824 4.67673 13.3824 4.66323H13.4027L13.4229 4.64298H13.4642V4.62273H13.4844L13.5054 4.60173H13.5459V4.58298H13.5872L13.6074 4.56273H13.6487L13.6689 4.54248H13.7304L13.7507 4.52148H13.8122C13.8257 4.52148 13.8324 4.51473 13.8324 4.50123H14.2622L14.2727 4.51173C14.2794 4.51848 14.2892 4.52148 14.3027 4.52148H14.3439L14.3544 4.53198C14.3612 4.53873 14.3709 4.54248 14.3844 4.54248H14.4257L14.4459 4.56273H14.4872L14.5074 4.58298H14.5487C14.5622 4.59648 14.5757 4.60323 14.5892 4.60323L14.6102 4.62423H14.6507V4.64448H14.6717L14.6919 4.66473L14.7017 4.67523C14.7092 4.68273 14.7189 4.68573 14.7324 4.68573L14.7534 4.70598H14.7737C14.7737 4.71948 14.7872 4.72623 14.8142 4.72623L14.8352 4.74648V4.76748H14.8554C14.8554 4.78098 14.8689 4.78773 14.8967 4.78773C14.8967 4.80123 14.9034 4.80798 14.9169 4.80798V4.82898H14.9372L14.9582 4.84923C14.9717 4.86273 14.9852 4.86948 14.9987 4.86948L15.0189 4.89048C15.0189 4.90398 15.0264 4.91073 15.0399 4.91073V4.93098H15.0602C15.0602 4.94448 15.0639 4.95498 15.0707 4.96098L15.0804 4.97223C15.0804 4.98573 15.0879 4.99248 15.1014 4.99248L15.1217 5.01273C15.1217 5.02623 15.1247 5.03673 15.1314 5.04348L15.1419 5.05398L15.1622 5.07423L15.1832 5.09448V5.13573L15.2034 5.15598V5.17548H15.2237C15.2237 5.18973 15.2274 5.19948 15.2342 5.20623L15.2439 5.21673C15.2439 5.23023 15.2514 5.23698 15.2649 5.23698V5.25798C15.2649 5.27148 15.2679 5.28123 15.2747 5.28798L15.2852 5.29848L15.3054 5.31873C15.3054 5.34648 15.3129 5.35998 15.3264 5.35998V5.38023C15.3264 5.39448 15.3294 5.40423 15.3362 5.41098L15.3467 5.42148V5.46198L15.3669 5.48298V5.54448C15.3804 5.55798 15.3872 5.57148 15.3872 5.58498V5.64648C15.4014 5.65998 15.4082 5.67348 15.4082 5.68773V5.85048C15.4082 6.57348 15.6669 7.21473 16.1852 7.77423C16.7177 8.30598 17.3522 8.57898 18.0887 8.59248C18.4562 8.57898 18.7839 8.70498 19.0712 8.97123C19.3569 9.23673 19.5002 9.56073 19.5002 9.94323C19.5002 10.325 19.3674 10.6482 19.1012 10.9152C18.9782 11.0432 18.8303 11.1447 18.6666 11.2133C18.5029 11.2819 18.3269 11.3163 18.1494 11.3142C17.9738 11.3168 17.7994 11.2846 17.6362 11.2196C17.473 11.1546 17.3242 11.0581 17.1984 10.9355C17.0693 10.8165 16.9656 10.6726 16.8934 10.5126C16.8212 10.3525 16.7821 10.1795 16.7784 10.004C16.7927 9.25398 16.5197 8.59248 15.9609 8.01948C15.4149 7.47348 14.7534 7.20798 13.9757 7.22148C13.622 7.23007 13.2735 7.30866 12.9504 7.45271C12.6273 7.59676 12.3359 7.80341 12.0932 8.06073C11.8418 8.30474 11.6431 8.59767 11.5094 8.92144C11.3756 9.24522 11.3096 9.59296 11.3154 9.94323L11.3147 10.0062C11.3297 10.7037 11.5884 11.324 12.0917 11.8662C12.6234 12.3987 13.2579 12.6717 13.9944 12.6852C14.4849 12.6582 14.8607 12.8352 15.1194 13.2177C15.3789 13.5852 15.4607 13.9752 15.3654 14.384C15.1742 15.0665 14.7377 15.407 14.0559 15.407H13.9944C13.2302 15.434 12.5957 15.7145 12.0917 16.2462C11.5727 16.7645 11.3139 17.399 11.3139 18.149C11.3139 18.5172 11.1812 18.8345 10.9149 19.1007C10.792 19.2287 10.6441 19.3302 10.4804 19.3988C10.3167 19.4674 10.1407 19.5018 9.96317 19.4997H9.92267C9.55442 19.4997 9.24017 19.367 8.98142 19.1007C8.85599 18.9763 8.75688 18.828 8.69001 18.6644C8.62313 18.5009 8.58986 18.3256 8.59217 18.149C8.59217 17.399 8.33342 16.7645 7.81517 16.2462C7.57239 15.9889 7.28102 15.7823 6.95791 15.6382C6.63479 15.4942 6.28633 15.4156 5.93267 15.407C5.74688 15.4173 5.56096 15.389 5.38668 15.3238C5.2124 15.2586 5.05355 15.158 4.92017 15.0282C4.78401 14.9019 4.67618 14.7482 4.60378 14.5771C4.53139 14.4061 4.49607 14.2217 4.50017 14.036C4.50017 13.6677 4.63292 13.3505 4.89917 13.0842C5.02534 12.9549 5.17669 12.8527 5.34386 12.7841C5.51103 12.7155 5.69049 12.6818 5.87117 12.6852V12.686Z" fill="#2DAEE4"/>
</svg>

<svg width="24" height="24" viewBox="0 0 24 24" fill="none"><path fill="#2daee4" fill-rule="evenodd" d="M5.852 8.593h.083q1.083-.02 1.882-.818.777-.839.777-1.924a1.3 1.3 0 0 1 .4-.952 1.32 1.32 0 0 1 .971-.399q.553 0 .951.4.4.399.4.951 0 .553-.379.952a1.28 1.28 0 0 1-.91.42Q8.86 7.18 8.02 8.02t-.798 1.965q.041 1.165.84 1.944.878.777 1.964.757a1.28 1.28 0 0 1 .91.42q.378.398.378.93 0 .574-.399.973a1.3 1.3 0 0 1-.95.399q-.574 0-.973-.4a1.32 1.32 0 0 1-.399-.971 2.57 2.57 0 0 0-.777-1.883 2.68 2.68 0 0 0-1.883-.84 1.3 1.3 0 0 1-.664-.122 1.2 1.2 0 0 1-.45-.399 1.76 1.76 0 0 1-.276-1.197q.266-1.002 1.308-1.003m.02 4.093q.531 0 .93.39.399.388.42.92-.021 1.125.777 1.964.798.819 1.924.819h.061q1.104 0 1.903-.819a2.6 2.6 0 0 0 .798-1.965 2.6 2.6 0 0 0-.84-1.902q-.806-.769-1.88-.778H9.88a1.28 1.28 0 0 1-.91-.42 1.33 1.33 0 0 1-.379-.951q0-.553.4-.952.338-.337.802-.39l.09-.009.034.001h.107q1.057-.012 1.843-.799.84-.839.818-1.985 0-.45.308-.818l.02-.02.02-.022q.001-.02.02-.02l.022-.02v-.02h.02v-.022q.02 0 .02-.02l.02-.02h.042q0-.022.02-.022l.02-.02v-.02h.041q.001-.021.02-.021l.022-.02.02-.02h.02q0-.02.021-.02.02 0 .02-.022h.02l.02-.02h.042v-.02h.02l.021-.021h.04v-.019h.042l.02-.02h.042l.02-.02h.061l.02-.022h.062q.02 0 .02-.02h.43l.01.01q.01.01.03.01h.042l.01.011q.01.01.03.01h.042l.02.02h.041l.02.021h.042q.02.02.04.02l.021.021h.04v.02h.022l.02.02.01.011q.01.011.03.01l.021.021h.02q0 .02.041.02l.021.02v.021h.02q0 .02.042.02 0 .021.02.021v.021h.02l.021.02q.02.02.04.02l.02.021q0 .02.022.02v.021h.02q0 .02.01.03l.01.011q0 .02.021.02l.02.02q0 .022.01.031l.01.011.021.02.021.02v.042l.02.02v.02h.02q0 .02.011.03l.01.01q0 .021.02.021v.021q0 .02.01.03l.011.01.02.02q0 .042.021.042v.02q0 .02.01.031l.01.01v.041l.02.021v.061q.021.02.021.041v.061q.021.02.021.042v.162q0 1.085.777 1.924a2.68 2.68 0 0 0 1.904.818q.551-.02.982.38.43.398.43.971 0 .572-.4.972a1.3 1.3 0 0 1-.952.4 1.33 1.33 0 0 1-.95-.38 1.3 1.3 0 0 1-.42-.931q.02-1.125-.818-1.985a2.63 2.63 0 0 0-1.985-.798 2.68 2.68 0 0 0-1.883.84 2.56 2.56 0 0 0-.778 1.882v.063q.022 1.047.777 1.86a2.67 2.67 0 0 0 1.902.82q.736-.042 1.125.532.39.552.246 1.166-.285 1.023-1.31 1.023h-.06q-1.148.04-1.903.84-.779.777-.778 1.902 0 .552-.4.952a1.3 1.3 0 0 1-.95.399h-.041q-.553 0-.942-.4a1.32 1.32 0 0 1-.389-.951q0-1.125-.777-1.903a2.68 2.68 0 0 0-1.882-.839 1.35 1.35 0 0 1-1.013-.379 1.3 1.3 0 0 1-.42-.992 1.3 1.3 0 0 1 .4-.952 1.32 1.32 0 0 1 .971-.399z" clip-rule="evenodd"/></svg>
